!!!!SEGMENT: pl-kc--40102-iii-1-saf--002-034_zielenski-mikolaj--communiones-totius-anni-in-festo-inventionis-s-crucis-per-signum-crucis.krn
!!!cenid: 16xx:1565
!!!COM: Zieleński, Mikołaj
!!!COM-rismid: pe30013481
!!!CDT:
!!!CNT: Polish
!!!OTL: Communiones totius anni
!!!OMV: 034
!!!PDT: 1611
!!!AGN:
!!!SMS-siglum: PL-Kc
!!!SMS-shelfmark: 40102 III/1 Saf.
!!!SMS-shelfwork: 002-034 W
!!!SMS-variant:
!!!SMS-altvar:
!!!NIFC-rismid: 990069887
!!!URL-scan: https://cyfrowe.mnk.pl/dlibra/publication/24235/edition/23926/content?ref=desc
!!!ONB-nifc: UWAGA: str. 61. Numer w źródle: 40. Uwaga: W xml metrum 2/1 do źródłowego C| i odpowiednio 3/1 do 3/2
**kern	**kern	**kern	**kern
*part4	*part3	*part2	*part1
*staff4	*staff3	*staff2	*staff1
*I"	*I"	*I"	*I"Organo
*I'	*I'	*I'	*I'org
*Iorgan	*Iorgan	*Iorgan	*Iorgan
*ICklav	*ICklav	*ICklav	*ICklav
*clefF5	*clefF4	*clefC4	*clefC3
*k[]	*k[]	*k[]	*k[]
*C:	*C:	*C:	*C:
*M2/1	*M2/1	*M2/1	*M2/1
*met(C|)	*met(C|)	*met(C|)	*met(C|)
=1	=1	=1	=1
!	!	!	!LO:TX:b:t=Per ſignum Crucis.
!	!	!	!LO:TX:a:t=40.  In feſto Inuentionis S.Crucis con quattro Tromboni,& Cantori.
00r	1r	1G	00r
.	1C	2G/	.
.	.	2G/	.
=2-	=2-	=2-	=2-
.	2C/	1A	.
.	2C/	.	.
.	1D	1F#X	.
=3	=3	=3	=3
00r	1BB	2r	00r
.	.	2G/	.
.	2r	2C/	.
.	2C/	2c\	.
=4-	=4-	=4-	=4-
.	2GG/	2c\	.
.	2G\	2B\	.
.	2G\	1A	.
.	2F\	.	.
=5	=5	=5	=5
00r	2.E\	2G/	1g
.	.	2c\	.
.	4F\	.	.
.	2G\	2B\	2g\
.	4F\	2.c\	2g\
.	4E\	.	.
=6-	=6-	=6-	=6-
.	2.F\	.	1a
.	.	4B\	.
.	.	4A/	.
.	4E\	4G/	.
.	1D	2A/	1f#X
.	.	4d\	.
.	.	4c\	.
=7	=7	=7	=7
0r	2.E\	4B\	2r
.	.	4A/	.
.	.	4B\	2g\
.	4E\	4G/	.
.	2F\	2A/	4c/
.	.	.	4c/
.	1D\	2.d\	2.f\
=8-	=8-	=8-	=8-
1GG	.	.	.
.	.	4c\	4e\
.	2.G\	2.c\	4e\
.	.	.	8d\
.	.	.	8c\
2GG/	.	.	2d\
.	4D/	8B\	.
.	.	8A\	.
2GG/	2G\	4B\	2d\
.	.	8A\	.
.	.	8B\	.
*custos:AA	*custos:E	*custos:c	*custos:c
!!linebreak:original
=9	=9	=9	=9
1AA	2E\	2.c\	2c/
.	2C/	.	2e\
.	.	4B\	.
1FF	2C/	4A/	2f\
.	.	4B\	.
.	2C/	4c\	2a\
.	.	4A/	.
=10-	=10-	=10-	=10-
*	*	*	*lig
2r	2.G\	1B	1d
2GG/	.	.	.
.	4F\	.	.
*	*	*	*col
2CC/	4E\	2r	2.e\
.	4D/	.	.
2C\	4C/	2G/	.
*	*	*	*Xlig
.	4D/	.	4f\
*	*	*	*Xcol
=11	=11	=11	=11
2C\	2E\	2G/	2g\
2BB/	4D/	2G/	2g\
.	4D/	.	.
4AA/	2E\	1A	4c/
4GG/	.	.	4c/
4FF/	2AA/	.	2.f\
4EE/	.	.	.
=12-	=12-	=12-	=12-
2DD/	1.D	1F	.
.	.	.	4f\
2BB-X/	.	.	4d\
.	.	.	4e\
2BB-/	.	2r	4f\
.	.	.	4d\
2FF/	2D/	2A/	[<2a\
=13	=13	=13	=13
2GG/	0.D	2G/	2a\]
2GG/	.	2B-X\	1g
0DD	.	2B-\	.
.	.	4A/	4f#X\
.	.	4G/	4e\
=14-	=14-	=14-	=14-
.	.	2A/	4f#X\
.	.	.	2g\
.	.	2A/	.
.	.	.	4f#X\
[1GG	[<1D	1Bny	2g\
.	.	.	2d\
=15	=15	=15	=15
1GG]	1D]	2r	2d\
.	.	2G/	2d\
1r	2r	2G/	1e
.	2C/	2G/	.
=16-	=16-	=16-	=16-
0r	2C/	1A	1c
.	2C/	.	.
.	1D	2F#X/	1r
.	.	2A/	.
=17	=17	=17	=17
1r	2.BB/	4D/	00r
.	.	4D/	.
.	.	2.d\	.
.	4C/	.	.
1GG	4D/	.	.
.	8C/	4G/	.
.	8D/	.	.
.	2E\	2.c\	.
=18-	=18-	=18-	=18-
2GG/	1D	.	.
.	.	8B\	.
.	.	8A\	.
2GG/	.	2B\	.
1AA	[1C	4c\	.
.	.	4B\	.
.	.	4A/	.
.	.	4G/	.
=19	=19	=19	=19
*	*	*lig	*
1FF	2C/]	1A	0r
.	2F\	.	.
*	*	*col	*
2r	2E\	2.G/	.
2GG/	2D/	.	.
*	*	*Xlig	*
.	.	4F/	.
*	*	*Xcol	*
=20-	=20-	=20-	=20-
2CC/	4C/	4E/	1g
.	4D/	4F/	.
2C\	4E\	2.G/	.
.	4F\	.	.
2C\	2E\	.	2g\
.	.	4C/	.
2BB/	2D/	[y2G/	2g\
=21	=21	=21	=21
!	!	!LO:N:xstem:cue	!
1AA	2E\	4G/]	1a
.	.	8F#X/	.
.	.	8E/	.
.	4D/	4F#/	.
.	4C/	8E/	.
.	.	8F#/	.
2.GG/	1D	4G/	1d
.	.	4A\	.
.	.	4B\	.
4AA/	.	4c\	.
=22-	=22-	=22-	=22-
2BB/	2D/	2d\	2r
2C\	2E\	2G/	2g\
2C\	2E\	4G/	4c/
.	.	4G/	4c/
2FF/	2A\	[<2c\	[y2f\
=23	=23	=23	=23
!	!	!	!LO:N:xstem:cue
2AA/	2A\	2c\]	4f\]
.	.	.	4f\
2AA/	2A\	2c\	2.e\
1DD	1F	2.A/	.
.	.	.	8d\
.	.	.	8c\
.	.	.	2d\
.	.	4B\	.
=24-	=24-	=24-	=24-
2AA/	2E\	1c	1e
1C	1E	.	.
.	.	1G	1r
2BB/	(>2D/	.	.
=25	=25	=25	=25
1AA	1C)	2r	1r
.	.	1c	.
1GG	1.D	.	2r
.	.	2B\	1g\
=26-	=26-	=26-	=26-
0r	.	1A	.
.	2D/	.	2f\
.	2E\	2.G/	1e
.	2C/	.	.
.	.	4A/	.
=27	=27	=27	=27
2r	1G	2.B\	0d
1GG	.	.	.
.	.	4A/	.
.	2r	4B\	.
.	.	4G/	.
2FF/	2D/	2A/	.
=28-	=28-	=28-	=28-
*lig	*	*	*
1EE	1G	2B\	2r
.	.	2c#X\	1g
1DD	2A\	2.d\	.
.	2A\	.	2f\
!	!	!LO:SIC:v:s=4cny\	!
.	.	4c#y\	.
*Xlig	*	*	*
=29	=29	=29	=29
2EE/	4G\	4B\	2.e\
.	4F\	8A\	.
.	.	8B\	.
2.CC/	4E\	2c\	.
.	4D/	.	4f\
.	1C	2G/	2e\
4DD/	.	.	.
4EE/	.	4F/	4d\
4FF/	.	4E/	4c/
*custos:GG	*custos:G	*custos:D	*custos:B
!!linebreak:original
=30-	=30-	=30-	=30-
2GG/	2G\	4D/	4B/
.	.	4E/	4c/
2DD/	1A	4F/	2d\
.	.	4D/	.
2.AA/	.	2E/	2c/
.	2A\	[y2E/	[y2e\
4BB/	.	.	.
=31	=31	=31	=31
!	!	!LO:N:xstem:cue	!LO:N:xstem:cue
2C\	2.G\	4E/]	4e\]
.	.	4F/	4d\
2CC/	.	2G/	2.c/
.	8F\	.	.
.	8E\	.	.
1GG	4D/	1G	.
.	4C/	.	8B/
.	.	.	8A/
.	2D/	.	2B/
=32-	=32-	=32-	=32-
2CC/	4C/	2.G/	2.c/
.	4D/	.	.
2.C\	4E\	.	.
.	4F\	4F/	4d\
.	2G\	2E/	2e\
4BB/	.	.	.
4AA/	2C/	[<2c\	[<2a\
4GG/	.	.	.
=33	=33	=33	=33
2FF/	1D	2c\]	2a\]
2GG/	.	2B\	2g\
0DD	0D	2A/	4f#X\
.	.	.	4d\
.	.	2G/	2.g\
=34-	=34-	=34-	=34-
.	.	1A	.
.	.	.	8f#yX\
.	.	.	8e\
.	.	.	2f#\
1GG	1D	1B	1g
=35	=35	=35	=35
*M3/2	*M3/2	*M3/2	*M3/2
!LO:N:vis=0	!	!	!
0.r	1C	1e	1g
.	1C	1c	1e
.	1G	1B	1d
=36-	=36-	=36-	=36-
0CC	2C/	1.c	0e
.	2D/	.	.
.	2E\	.	.
.	2C/	4B\	.
.	.	4A\	.
1GG	1D	1B	1r
=37	=37	=37	=37
0CC	1C	1e	1g
.	1C	1c	1e
1r	1G	1B	1d
=38-	=38-	=38-	=38-
1CC	2C/	1.c	0e
.	2D/	.	.
1CC	2E\	.	.
.	2C/	4B\	.
.	.	4A\	.
1GG	2D/	2B\	1r
.	2E\	2c\	.
=39	=39	=39	=39
0DD	1F	1d	1a
.	1D	1d	1f
1r	1A	1c#X	1e
=40-	=40-	=40-	=40-
1DD	2D/	1.d	0f
.	2E\	.	.
1DD	2F\	.	.
.	2D/	4c#X\	.
.	.	4B\	.
1AA	1E	1c#	1a
=41-	=41-	=41-	=41-
0DD	1F	1d	1f
.	1D	1d	1e
1r	1A	1c#X	0f
=42-	=42-	=42-	=42-
1DD	2D/	1.d	.
.	2E\	.	.
!	!	!	!LO:N:vis=1
1DD	2F\	.	0r
.	2D/	4c#X\	.
.	.	4B\	.
1AA	1E	1c#	.
=43	=43	=43	=43
0DD	1.A	0.d	1.f#X
.	2G\	.	2g\
1DD	1F#X	.	1a
=44-	=44-	=44-	=44-
1.GG	0G	1.B	0d
2AA/	.	2c\	.
1BB	1D	1d	1d
=45-	=45-	=45-	=45-
0C	1.G	0c	1.e
.	2Fny\	.	2fny\
1CC	1E	1c	1g
=46-	=46-	=46-	=46-
1.FF	0F	1.A	0a
2GG/	.	2B\	.
1AA	1E	1c#X	1e
=47	=47	=47	=47
0DD	1.D	2d\	1.f
.	.	1d	.
.	2E\	2c\	2e\
1DD	1F#X	1A	1d
=48-	=48-	=48-	=48-
1.GG	0G	0B	0d
2FF/	.	.	.
1EE	1G	1A	1e
=49-	=49-	=49-	=49-
0CC	1.E	1.e	1.g
.	2Fny\	2d\	2f\
1CC	1G	1c	1e
=50-	=50-	=50-	=50-
1.FF	0F	1.A	0c
2GG/	.	2B\	.
1AA	1E	1c	1c
=51	=51	=51	=51
*M2/1	*M2/1	*M2/1	*M2/1
*met(C|)	*met(C|)	*met(C|)	*met(C|)
1DD	1.D	2.d\	2.f\
.	.	4c\	4e\
2GG/	.	2B\	4d\
.	.	.	4G/
2CC/	2E\	2.c\	1g\
=52-	=52-	=52-	=52-
1GG	2D/	.	.
.	.	8B\	.
.	.	8A\	.
.	2.G\	2B\	2d\
1CC	.	2c\	2e\
.	4F\	.	.
.	4E\	[2G/	4c/
.	4D/	.	4d\
=53	=53	=53	=53
1.C	4C/	2G/]	4e\
.	4D/	.	4f\
.	4E\	1c	4g\
.	4F\	.	4a\
.	4G\	.	4g\
.	2A\	.	4c\
2C\	.	2c\	4e\
.	8G\	.	4f\
.	8F\	.	.
=54-	=54-	=54-	=54-
1CC	4E\	1.c	4g\
.	2F\	.	4a\
.	.	.	2g\
.	4E\	.	.
2FF/	2F\	.	2f\
[2FF/	2C/	4F/	[<2a\
.	.	4G/	.
=55	=55	=55	=55
2FF/]	2C/	4A/	2a\]
.	.	4B\	.
2EE/	2C/	4c\	1g
.	.	4G/	.
0.FF	1C	2.A/	.
.	.	.	4f\
.	.	4G/	4e\
=56-	=56-	=56-	=56-
.	2C/	2.F/	4f\
.	.	.	4c/
.	1C	.	4f\
.	.	4E/	4g\
.	.	2F/	2a\
.	1F\	2A/	2f\
=57-	=57-	=57-	=57-
0CCl	.	0lG	0gl
.	4E\	.	.
.	4D/	.	.
.	1El	.	.
==	==	==	==
*-	*-	*-	*-
!!!system-decoration: [s1,s2,s3,s4]
!!!RDF**kern: l = terminal long
!!!RDF**kern: i = editorial accidental
!!!RDF**kern: > = above
!!!RDF**kern: < = below
!!!ENC: Katarzyna Serwa
!!!END: 2021-12-25
!!!ENC: Filip Voros
!!!END: 2021-12-21
